X: 5
T: The Silver Vale
R: jig
M: 6/8
L: 1/8
K: Dmaj
|:dAF AGF|dAF AGF|A,CE GFG|A,CE GFE|
DFA DGB|Ace d2e|fed cBA|1GFE D3:|2GFE D2e|
|:fdf a^ga|fdc d2f|ede gfg|efd cde|
fef gfg|aga bag|fed cBA|1GFE D2e:|2GFE D3|]


Tune 644	Setting 2592

